dist/img/svg/advantages/temperature.svg

<svg width="16" height="29" viewBox="0 0 16 29" fill="none" xmlns="http://www.w3.org/2000/svg">
<path fill-rule="evenodd" clip-rule="evenodd" d="M3.18018 22.0065C3.18018 23.8461 4.62806 25.3416 6.40972 25.3416C8.19137 25.3416 9.63926 23.8461 9.63926 22.0065C9.63926 20.1671 8.19138 18.6715 6.40972 18.6715C4.62805 18.6715 3.18018 20.1671 3.18018 22.0065ZM6.40972 23.6998C5.50654 23.6998 4.77027 22.9396 4.77027 22.0065C4.77027 21.0735 5.50655 20.3133 6.40972 20.3133C7.31288 20.3133 8.04916 21.0735 8.04916 22.0065C8.04916 22.9396 7.31289 23.6998 6.40972 23.6998Z" fill="#78C081"/>
<path fill-rule="evenodd" clip-rule="evenodd" d="M6.40979 20.3134C6.84889 20.3134 7.20484 19.9458 7.20484 19.4925V7.95122C7.20484 7.49785 6.84889 7.13033 6.40979 7.13033C5.9707 7.13033 5.61475 7.49785 5.61475 7.95122V19.4925C5.61475 19.9458 5.9707 20.3134 6.40979 20.3134Z" fill="#78C081"/>
<path fill-rule="evenodd" clip-rule="evenodd" d="M6.40974 26.9841C3.74807 26.9841 1.5901 24.7557 1.5901 22.0066C1.5901 20.2936 2.42736 18.7825 3.70583 17.8857C3.92369 17.7329 4.05411 17.4786 4.05411 17.2067V4.68056C4.05411 3.3368 5.10892 2.24776 6.40974 2.24776C7.71056 2.24776 8.76536 3.3368 8.76536 4.68056V17.2067C8.76536 17.4786 8.89579 17.7329 9.11365 17.8857C10.3922 18.7825 11.2294 20.2936 11.2294 22.0066C11.2294 24.7557 9.07145 26.9841 6.40974 26.9841ZM0 22.0066C0 25.6622 2.86959 28.6259 6.40974 28.6259C9.94994 28.6259 12.8195 25.6622 12.8195 22.0066C12.8195 19.8869 11.854 18.0005 10.3555 16.79V4.68056C10.3555 2.43033 8.589 0.605965 6.40974 0.605965C4.23047 0.605965 2.46402 2.43033 2.46402 4.68056V16.79C0.965488 18.0005 0 19.8869 0 22.0066Z" fill="#78C081"/>
<path fill-rule="evenodd" clip-rule="evenodd" d="M11.9458 14.5331C11.9458 14.9865 12.3018 15.354 12.7408 15.354H15.2049C15.644 15.354 15.9999 14.9865 15.9999 14.5331C15.9999 14.0797 15.644 13.7122 15.2049 13.7122H12.7408C12.3018 13.7122 11.9458 14.0797 11.9458 14.5331Z" fill="#78C081"/>
<path fill-rule="evenodd" clip-rule="evenodd" d="M11.9458 11.2493C11.9458 11.7027 12.3018 12.0702 12.7408 12.0702H15.2049C15.644 12.0702 15.9999 11.7027 15.9999 11.2493C15.9999 10.7959 15.644 10.4284 15.2049 10.4284H12.7408C12.3018 10.4284 11.9458 10.7959 11.9458 11.2493Z" fill="#78C081"/>
<path fill-rule="evenodd" clip-rule="evenodd" d="M11.9458 7.96475C11.9458 8.41812 12.3018 8.78564 12.7408 8.78564H15.2049C15.644 8.78564 15.9999 8.41812 15.9999 7.96475C15.9999 7.51138 15.644 7.14385 15.2049 7.14385H12.7408C12.3018 7.14385 11.9458 7.51138 11.9458 7.96475Z" fill="#78C081"/>
<path fill-rule="evenodd" clip-rule="evenodd" d="M11.9458 4.68048C11.9458 5.13385 12.3018 5.50137 12.7408 5.50137H15.2049C15.644 5.50137 15.9999 5.13385 15.9999 4.68048C15.9999 4.22711 15.644 3.85958 15.2049 3.85958H12.7408C12.3018 3.85958 11.9458 4.22711 11.9458 4.68048Z" fill="#78C081"/>
</svg>

<svg width="16" height="29" fill="none" xmlns="http://www.w3.org/2000/svg"><path fill-rule="evenodd" clip-rule="evenodd" d="M3.18 22.006c0 1.84 1.448 3.336 3.23 3.336 1.781 0 3.23-1.496 3.23-3.335 0-1.84-1.449-3.335-3.23-3.335-1.782 0-3.23 1.495-3.23 3.334zM6.41 23.7c-.903 0-1.64-.76-1.64-1.694 0-.933.737-1.693 1.64-1.693.903 0 1.64.76 1.64 1.694 0 .933-.737 1.693-1.64 1.693z" fill="#78C081"/><path fill-rule="evenodd" clip-rule="evenodd" d="M6.41 20.313a.808.808 0 00.795-.82V7.95a.808.808 0 00-.795-.82.808.808 0 00-.795.82v11.542c0 .453.356.82.795.82z" fill="#78C081"/><path fill-rule="evenodd" clip-rule="evenodd" d="M6.41 26.984c-2.662 0-4.82-2.228-4.82-4.977 0-1.713.837-3.225 2.116-4.121a.829.829 0 00.348-.68V4.682c0-1.344 1.055-2.433 2.356-2.433 1.3 0 2.355 1.089 2.355 2.433v12.526c0 .272.13.526.349.679a5.017 5.017 0 012.115 4.12c0 2.75-2.158 4.978-4.82 4.978zM0 22.007c0 3.655 2.87 6.619 6.41 6.619s6.41-2.964 6.41-6.62c0-2.12-.966-4.006-2.465-5.216V4.68C10.355 2.43 8.59.607 6.41.607c-2.18 0-3.946 1.824-3.946 4.075V16.79A6.688 6.688 0 000 22.007zm11.946-7.474c0 .454.356.821.795.821h2.464a.808.808 0 00.795-.82.808.808 0 00-.795-.822H12.74a.808.808 0 00-.795.821zm0-3.283c0 .453.356.82.795.82h2.464a.808.808 0 00.795-.82.808.808 0 00-.795-.822H12.74a.808.808 0 00-.795.821zm0-3.285c0 .453.356.82.795.82h2.464a.808.808 0 00.795-.82.808.808 0 00-.795-.821H12.74a.808.808 0 00-.795.82zm0-3.285c0 .454.356.821.795.821h2.464a.808.808 0 00.795-.82.808.808 0 00-.795-.821H12.74a.808.808 0 00-.795.82z" fill="#78C081"/></svg>
